X:1
T:I Believe
T:I Believe
T:Joseph Crawley
T:Nell Ray, 1922
T:Public Domain Courtesy of the Cyber Hymnal™
T:Public Domain Courtesy of the Cyber Hymnal™
C:Joseph Crawley
Z:Public Domain
Z:Courtesy of the Cyber Hymnal™
%%score ( 1 2 ) ( 3 4 )
L:1/8
Q:1/4=92
M:4/4
K:G
V:1 treble 
V:2 treble 
V:3 bass 
V:4 bass 
V:1
 BA | G4- [DG][DB][DA][DG] | [CE]([EG-] G4) GE | D4- [B,D][DG][DG][GB] | A6 BA | %5
w: 1.~I be-|lieve, and now ac- cept|* Him, * As my|own, my Sav- ior true;|* He a-|
w: 2.~I be-|lieve in Christ, my Sav-|* ior, * For His|blood has ran- somed me;|* Thro’ His|
w: 3.~I be-|lieve no more in dark-|* ness, * Shall I|grope a- long life’s way?|* Je- sus’|
w: 4.~I be-|lieve in yon- der coun-|* try, * Where we’re|told no night will come;|* We shall|
 G4- [DG][DB][DA][DG] | [CE]([EG-] G4) dc | B4- [GB]G[FA][FA] | G6 ||"^Refrain" dd | %10
w: lone can give sal- va-|* tion, * And the|heart cre- ate a- new.|||
w: grace I’m now re- joic-|* ing * In the|peace of li- ber- ty.|I|be- lieve,|
w: hand will safe- ly guide|* me, * No- thing|shall my soul dis- may.|||
w: meet those gone be- fore|* us, * With them|share a change- less home.|||
 d4- [Gd][Gd][Ge][Gd] | [GB] ([GB-] B4) dd | d4- [Gd][GB][GB][GB] | A6 BA | G4- [DG][DB][DA][DG] | %15
w: |||||
w: His blood has cleansed me,|* From * the stain|of blight- ing sin, I|* be- lieve|none else could save me,|
w: |||||
w: |||||
 [CE] ([EG-] G4) dc | B4- [GB]G[FA][FA] | G6 |] %18
w: |||
w: * Ful- * ly cleanse|my soul with- in. *||
w: |||
w: |||
V:2
 x2 | D2 D2 x4 | x2 (EEDC) x2 | B,2 B,2 x4 | (FFFF F2) x2 | D2 D2 x4 | x2 (EEDD) x2 | %7
 (G2 G2 G) x3 | (GFEE D2) || x2 | G2 F2 x4 | x2 (GG GG) x2 | G2 F2 x4 | (FFFF F2) x2 | D2 D2 x4 | %15
 x2 (EE DD) x2 | (G2 G2 G) x3 | (GFEE D2) |] %18
V:3
 z2 | ([G,,B,]2 [G,,B,]2 [G,,B,])[G,,G,][G,,F,][B,,G,] | [C,G,] ([C,C][C,C][E,C][G,B,][G,B,]) z2 | %3
w: |~ * * ~ ~ ~|~ ~ * * * *|
 ([G,,G,]2 [G,,G,]2 [G,,G,])[G,,B,][B,,D][G,,D] | ([D,D][D,D][D,D][D,D] [D,D]2) z2 | %5
w: ~ * * ~ ~ ~|~ * * * *|
 [G,,B,]2 [G,,B,]2 [G,,B,][G,,G,][A,,F,][B,,G,] | [C,G,] ([C,C][C,C][E,C][G,B,]B,) z2 | %7
w: ~ ~ ~ ~ ~ ~|~ ~ * * * *|
 [G,D]2 [G,D]2 [G,D][B,,D][D,D][D,C] | (B,B,CC B,2) || z2 | %10
w: ~ ~ ~ ~ ~ ~|~ * * * *||
 [G,B,]2 [D,A,]2 [G,B,][G,B,][G,C][G,B,] | [G,D][G,D][G,D][G,D] [G,D][G,D] z2 | %12
w: I be- lieve, ~ ~ ~|~ ~ blood has cleansed me|
 [G,B,]2 [D,A,]2 [G,B,][G,D][G,D][B,,D] | [D,D][D,D][D,D][D,D] [D,D]2 z2 | %14
w: From the stain ~ ~ ~|~ of blight- ing sin;|
 [G,,B,]2 [G,,B,]2 [G,,B,][G,,G,][A,,F,][B,,G,] | [C,G,][C,C][C,C][E,C] [G,B,]B, z2 | %16
w: ~ ~ ~ ~ ~ ~|~ ~ none could save me|
 [G,D]2 [G,D]2 [G,D][B,,D][D,D][D,C] | B,B,CC B,2 |] %18
w: ~ ~ ~ ~ ~ ~|~ my soul with- in|
V:4
 x2 | x8 | x8 | x8 | x8 | x8 | x8 | x8 | G,,6 || x2 | x8 | x8 | x8 | x8 | x8 | x8 | x8 | G,,6 |] %18

